X:1
T:Alice Springs, 87.87 D
T:Alice Springs, 87.87 D
T:M. B. Willis, 1901
T:Public Domain Courtesy of the Cyber Hymnal™
C:M. B. Willis, 1901
Z:Public Domain
Z:Courtesy of the Cyber Hymnal™
%%score ( 1 2 ) ( 3 4 )
L:1/8
Q:1/4=110
M:4/4
K:F
V:1 treble 
V:2 treble 
V:3 bass 
V:4 bass 
V:1
 F[FG] | [FA]2 [FA]2 [FA]2 [FA]2 | [FA]2 [DG]4 [DG][DA] | [CB]2 [EB]2 [Ec]2 [EB]2 | %4
 [FA]6 [FA][GB] | [Ac]2 [Ac]2 [Ac]2 [Ac]2 | [Ec]2 [EG]4 [CE][DF] | [EG]2 [EG]2 [FA]2 [FG]2 | %8
 [EG]6 [Ec][EB] | [FA]2 [FA]2 [FA]2 [FA]2 | [FA]2 [DG]4 [DG][DA] | [CB]2 [EB]2 [Ec]2 [EB]2 | %12
 [FA]6 [FA][GB] | [Ac]2 [Ac]2 [Ac]2 [Ad]2 | [Fc]2 [FB]4 [FA][FG] | [FA]2 [Fc]2 [=B,F]2 [_B,G]2 | %16
 [A,F]6 |] %17
V:2
 F x | x8 | x8 | x8 | x8 | x8 | x8 | x8 | x8 | x8 | x8 | x8 | x8 | x8 | x8 | x8 | x6 |] %17
V:3
 [F,A,][F,B,] | [F,C]2 [F,=B,]2 [F,C]2 [F,D]2 | [F,C]2 [G,B,]4 [G,B,][F,B,] | %3
 [E,B,]2 [C,G,]2 [C,G,]2 [C,C]2 | [F,C]6 [F,C][F,C] | [F,C]2 [F,C]2 [F,F]2 [F,C]2 | %6
 [G,C]2 [G,C]4 [G,C][G,B,] | [G,C]2 [G,C]2 [G,=B,]2 [G,B,]2 | [C,C]6 [C,C][C,C] | %9
 [F,C]2 [F,=B,]2 [F,C]2 [F,D]2 | [F,C]2 [G,B,]4 [G,B,][F,B,] | [E,B,]2 [C,G,]2 [C,G,]2 [C,C]2 | %12
 [F,C]6 [F,C][F,C] | [F,F]2 [F,F]2 [F,_E]2 [F,E]2 | [B,,D]2 [B,,D]4 [B,_D][B,D] | %15
 C2 [C,A,]2 [D,G,]2 [C,E,]2 | [F,,F,]6 |] %17
V:4
 x2 | x8 | x8 | x8 | x8 | x8 | x8 | x8 | x8 | x8 | x8 | x8 | x8 | x8 | x8 | C2 x6 | x6 |] %17

